!!!COM: Messiaen, Olivier (Eugène Prosper Charles)
!!!OTL: [T792_Mes-w34p26m1-10]
**kern	**dynam	**kern	**dynam	**kern	**dynam
*grp:A	*grp:A	*grp:B	*	*grp:B	*grp:B
*part2	*part2	*part1	*	*part1	*part1
*staff3	*	*staff2	*	*staff1	*
*I"Pedals	*	*I"Organ	*	*	*
*I'Ped.	*	*I'Org.	*	*	*
!!pagebreak:original
*clefF4	*	*clefG2	*	*clefG2	*
*k[]	*	*k[]	*	*k[]	*
*C:	*	*C:	*	*C:	*
*M2/4	*	*M2/4	*	*M2/4	*
=1	=1	=1	=1	=1	=1
!	!	!	!	!LO:TX:t=[quarter]=60	!
!	!	!	!	!LO:TX:a:rj:t=R&colon;	!
!	!	!	!	!LO:TX:a:B:t=Presque lent	!
!LO:TX:b:t=(rangapradîpaka, par retrait du 1/4)	!	!	!	!LO:TX:rj:t=r	!LO:DY:t=legato %s
4r	.	2ryy	.	8.ryy	4ryy
!	!	!	!	!LO:TX:a:t=e	!
.	.	.	.	16ryy	.
!LO:TX:a:t=(tir. G,P)	!	!	!	!LO:TX:a:t=l	!
8r	.	.	.	8ryy	.
!	!	!	!	!LO:TX:a:t=a	!
16r	.	.	.	8ryy	.
!	!LO:DY:t=legato %s	!LO:TX:a:t=GP&colon;	!	!	!
[16Bn	f	.	.	.	.
*	*	*	*	*clefF4	*
=2	=2	=2	=2	=2	=2
*M5/8	*	*M5/8	*	*M5/8	*
!	!	!	!	!LO:TX:a:t=t	!
8B]	.	8ryy	.	2ryy	.
[8C#X	.	16ryy	.	.	.
!	!	!	!LO:DY:t=legato %s	!	!
.	.	16ryy	4ryy	.	.
16C#LL]	.	4ryy	.	.	.
[16AnJJ	.	.	.	.	.
32AKLL]	.	.	.	.	.
[16.GnJJ	.	.	.	.	.
16.G]	.	16ryy	.	16ryy	.
*	*	*	*	*clefG2	*
!	!	!	!	!LO:TX:a:t=i	!
.	.	16ryy	.	16ryy	.
[32AA-X	.	.	.	.	.
!!linebreak:original
=3	=3	=3	=3	=3	=3
*M11/16	*	*M11/16	*	*M11/16	*
!	!	!	!	!LO:TX:a:t=o	!
4AA-]	.	16.ryy	.	2ryy	.
.	.	32ryy	.	.	.
.	.	8ryy	.	.	.
[8F#X	.	8ryy	.	.	.
16F#LL]	.	16.ryy	.	.	.
[16GGnJJ	.	.	.	.	.
.	.	32ryy	.	.	.
8GG]	.	32ryy	.	8.ryy	.
.	.	16.ryy	.	.	.
[16En	.	16ryy	.	.	.
=4	=4	=4	=4	=4	=4
*M7/16	*	*M7/16	*	*M7/16	*
!	!	!	!	!LO:TX:a:t=n	!
32EKLL]	.	16.ryy	.	4ryy	.
[16.DnJJ	.	.	.	.	.
*	*	*clefF4	*	*	*
.	.	32ryy	.	.	.
16.D]	.	32ryy	.	.	.
.	.	16.ryy	.	.	.
[32FFn	.	.	.	.	.
8.FF_	.	8.ryy	.	8.ryy	.
!!linebreak:original
=5	=5	=5	=5	=5	=5
*M3/16	*	*M3/16	*	*M3/16	*
!	!	!	!	!LO:TX:a:t=(locatif&colon; en)	!
16FF]	.	16.ryy	.	8.ryy	.
16r	.	.	.	.	.
*	*	*clefG2	*	*	*
!	!	!LO:TX:b:B:t=1	!	!	!
!	!	!LO:TX:b:B:t=5	!	!	!
.	.	32ryy	.	.	.
16r	.	16ryy	.	.	.
=6	=6	=6	=6	=6	=6
!	!	!LO:TX:b:B:t=2	!	!	!
!	!	!LO:TX:b:B:t=4	!	!	!
16%3r	.	16.ryy	.	8.ryy	.
!	!	!LO:TX:b:B:t=1	!	!	!
!	!	!LO:TX:b:B:t=5	!	!	!
.	.	32ryy	.	.	.
!	!	!LO:TX:b:B:t=1	!	!	!
!	!	!LO:TX:b:B:t=2	!	!	!
.	.	32ryy	.	.	.
!	!	!LO:TX:b:B:t=1	!	!	!
!	!	!LO:TX:b:B:t=4	!	!	!
.	.	32ryy	.	.	.
=7	=7	=7	=7	=7	=7
!	!	!LO:TX:b:B:t=1	!	!	!
!	!	!LO:TX:b:B:t=3	!	!	!
16r	.	16ryy	.	8.ryy	.
!	!	!LO:TX:b:B:t=1	!	!	!
!	!	!LO:TX:b:B:t=5	!	!	!
16r	.	32ryy	.	.	.
!	!	!LO:TX:b:B:t=1	!	!	!
!	!	!LO:TX:b:B:t=3	!	!	!
.	.	32ryy	.	.	.
!	!	!LO:TX:b:B:t=1	!	!	!
!	!	!LO:TX:b:B:t=5	!	!	!
[16cn	.	16ryy	.	.	.
=8	=8	=8	=8	=8	=8
*M5/16	*	*M5/16	*	*M5/16	*
8c]	.	4ryy	.	4ryy	.
[8C#X	.	.	.	.	.
16C#]	.	16ryy	.	16ryy	.
!!linebreak:original
=9	=9	=9	=9	=9	=9
*M4/4	*	*M4/4	*	*M4/4	*
!	!	!LO:TX:b:B:t=1	!	!	!
!	!	!LO:TX:b:B:t=5	!	!LO:TX:a:t=Dieu	!
16.B-XLL	.	16ryy	.	1ryy	.
!	!	!LO:TX:b:B:t=2	!	!	!
!	!	!LO:TX:b:B:t=4	!	!	!
.	.	16ryy	.	.	.
[32A-XJJk	.	.	.	.	.
8A-_	.	32ryy	.	.	.
.	.	16.ryy	.	.	.
32A-]	.	8ryy	.	.	.
[16.AAn	.	.	.	.	.
8AA_	.	8ryy	.	.	.
16AA]	.	32ryy	.	.	.
.	.	16ryy	.	.	.
8.Gn	.	.	.	.	.
.	.	32ryy	.	.	.
.	.	16ryy	.	.	.
.	.	16ryy	.	.	.
8.AA-X	.	16.ryy	.	.	.
.	.	32ryy	.	.	.
.	.	32ryy	.	.	.
.	.	16.ryy	.	.	.
[16G-X	.	.	.	.	.
=10	=10	=10	=10	=10	=10
*M5/16	*	*M5/16	*	*M5/16	*
32G-KLL]	.	8ryy	.	8ryy	.
[16.FnJJ	.	.	.	.	.
16F_	.	16ryy	.	16ryy	.
32F]	.	16.ryy	.	8ryy	.
[16.EE-X	.	.	.	.	.
.	.	32ryy	.	.	.
=	=	=	=	=	=
*-	*-	*-	*-	*-	*-
!!!system-decoration: [({(s1,s2)})]s3
